svgs/duotone/key.svg

<svg xmlns="http://www.w3.org/2000/svg" viewBox="0 0 512 512"><!--! Font Awesome Pro 6.4.2 by @fontawesome - https://fontawesome.com License - https://fontawesome.com/license (Commercial License) Copyright 2023 Fonticons, Inc. --><path class="fa-primary" style="fill:var(--fa-primary-color,inherit);opacity:var(--fa-primary-opacity,1);" d="M168.3 229.7L282.3 343.7l0 0c16.9 5.4 35 8.3 53.7 8.3c97.2 0 176-78.8 176-176S433.2 0 336 0S160 78.8 160 176c0 18.7 2.9 36.8 8.3 53.7l0 0zM336 136a40 40 0 1 1 80 0 40 40 0 1 1 -80 0z"/><path class="fa-secondary" style="fill:var(--fa-secondary-color,inherit);opacity:var(--fa-secondary-opacity,.4);" d="M168.3 229.7L282.3 343.7l0 0s0 0 0 0L249 377c-4.5 4.5-10.6 7-17 7H192v40c0 13.3-10.7 24-24 24H128v40c0 13.3-10.7 24-24 24H24c-13.3 0-24-10.7-24-24V408c0-6.4 2.5-12.5 7-17L168.3 229.7s0 0 0 0l0 0z"/></svg>

<svg xmlns="http://www.w3.org/2000/svg" viewBox="0 0 512 512"><!--! Font Awesome Pro 6.1.1 by @fontawesome - https://fontawesome.com License - https://fontawesome.com/license (Commercial License) Copyright 2022 Fonticons, Inc. --><defs><style>.fa-secondary{opacity:.4}</style></defs><path class="fa-primary" d="M160 176C160 78.8 238.8 0 336 0C433.2 0 512 78.8 512 176C512 273.2 433.2 352 336 352C317.3 352 299.2 349.1 282.3 343.7L168.3 229.7C162.9 212.8 160 194.7 160 176V176zM376 96C353.9 96 336 113.9 336 136C336 158.1 353.9 176 376 176C398.1 176 416 158.1 416 136C416 113.9 398.1 96 376 96z"/><path class="fa-secondary" d="M168.3 229.7L282.3 343.7C282.3 343.7 282.3 343.7 282.3 343.7L248.1 376.1C244.5 381.5 238.4 384 232 384H192V424C192 437.3 181.3 448 168 448H128V488C128 501.3 117.3 512 104 512H24C10.75 512 0 501.3 0 488V408C0 401.6 2.529 395.5 7.029 391L168.3 229.7C168.3 229.7 168.3 229.7 168.3 229.7V229.7z"/></svg>
